Adwaita++/actions/16/object-to-path.svg

<svg height="16" viewBox="0 0 16 16" width="16" xmlns="http://www.w3.org/2000/svg">
  <path d="m4.9042969-.03125v.09765625c-1.352-.14162-2.4685907.1833025-3.2753907.8203125-.81566995.64410005-1.30506558 1.57731255-1.50976558 2.57031245-.29377999 1.4258-.02180374 3.0095969.78515626 4.2167969v3.2949219h4.00000002v-1.1621094c.6603.088 1.3430687.1405332 2.0429687.1582032-.004.2152102-.0172781.4443472-.0175781.6542972-.002 1.3957.0770975 2.656128.5546875 3.611328.89515 1.7903 2.700522 2.086125 4.419922 1.578125v.160156h4v-3.773438c.18457-.71537.103351-1.454378-.355469-2.142578-.48313-.7246896-1.394706-.9214577-2.441406-1.0175778-1.0466-.09609-2.298263-.0556637-3.6015626-.0273437-.51656.01122-1.01125-.0341694-1.53125-.0371094.032-.89938.0655656-1.7832594.0722656-2.6933593.006-.8010001-.0208019-1.5773938-.1074219-2.3085938h.9648438v-4zm-.8789063 1.0664062c.25019-.01421.5201869-.0070993.8105469.0253907.026.0029.0429594.0140781.0683594.0175781v2.890625h2.0214843c.0908.69764.1271238 1.4758813.1210938 2.3007812-.006.8769401-.0402656 1.7767344-.0722656 2.6777344-.72619-.0272-1.4213125-.0826012-2.0703125-.1757812v-1.8027344h-3.2441407c-.5689199-.9567-.79011995-2.2059469-.5625-3.3105469.16607-.80593.5504407-1.5126281 1.1503907-1.9863281.44995-.35528 1.0268437-.5940988 1.7773437-.6367188zm7.3808594 8.9394532c.59016-.000966 1.135875.0131806 1.609375.0566406.94689.08693 1.536672.329522 1.701172.576172.27437.41156.298476.882878.160156 1.361328h-2.972656v2.802734c-1.3652.52037-2.8210907.420329-3.5253908-.988281-.32863-.65726-.4508687-1.816709-.4492187-3.162109.00024-.19843.0134781-.434925.0175781-.6406252.53213-.0029001 1.0616781.0366502 1.5800782.0253902.6541802-.0142096 1.2887062-.0302796 1.8789062-.0312496z" fill="#474747"/>
</svg>

<svg xmlns="http://www.w3.org/2000/svg" width="16" height="16" viewBox="0 0 16 16">
 <defs>
  <style id="current-color-scheme" type="text/css">
   .ColorScheme-Text { color:#474747; } .ColorScheme-Highlight { color:#4285f4; }
  </style>
 </defs>
 <path style="fill:currentColor" class="ColorScheme-Text" d="M 4.9042969 -0.03125 L 4.9042969 0.06640625 C 3.5522969 -0.07521375 2.4357062 0.24970875 1.6289062 0.88671875 C 0.81323625 1.5308188 0.32384062 2.4640313 0.11914062 3.4570312 C -0.17463937 4.8828312 0.097336875 6.4666281 0.90429688 7.6738281 L 0.90429688 10.96875 L 4.9042969 10.96875 L 4.9042969 9.8066406 C 5.5645969 9.8946406 6.2473656 9.9471738 6.9472656 9.9648438 C 6.9432656 10.180054 6.9299875 10.409191 6.9296875 10.619141 C 6.9276875 12.014841 7.006785 13.275269 7.484375 14.230469 C 8.379525 16.020769 10.184897 16.316594 11.904297 15.808594 L 11.904297 15.96875 L 15.904297 15.96875 L 15.904297 12.195312 C 16.088867 11.479942 16.007648 10.740934 15.548828 10.052734 C 15.065698 9.3280444 14.154122 9.1312763 13.107422 9.0351562 C 12.060822 8.9390662 10.809159 8.9794925 9.5058594 9.0078125 C 8.9892994 9.0190325 8.4946094 8.9736431 7.9746094 8.9707031 C 8.0066094 8.0713231 8.040175 7.1874437 8.046875 6.2773438 C 8.052875 5.4763437 8.0260731 4.69995 7.9394531 3.96875 L 8.9042969 3.96875 L 8.9042969 -0.03125 L 4.9042969 -0.03125 z M 4.0253906 1.0351562 C 4.2755806 1.0209462 4.5455775 1.0280569 4.8359375 1.0605469 C 4.8619375 1.0634469 4.8788969 1.074625 4.9042969 1.078125 L 4.9042969 3.96875 L 6.9257812 3.96875 C 7.0165812 4.66639 7.052905 5.4446313 7.046875 6.2695312 C 7.040875 7.1464713 7.0066094 8.0462656 6.9746094 8.9472656 C 6.2484194 8.9200656 5.5532969 8.8646644 4.9042969 8.7714844 L 4.9042969 6.96875 L 1.6601562 6.96875 C 1.0912363 6.01205 0.87003625 4.7628031 1.0976562 3.6582031 C 1.2637262 2.8522731 1.6480969 2.145575 2.2480469 1.671875 C 2.6979969 1.316595 3.2748906 1.0777762 4.0253906 1.0351562 z M 11.40625 9.9746094 C 11.99641 9.9736434 12.542125 9.98779 13.015625 10.03125 C 13.962515 10.11818 14.552297 10.360772 14.716797 10.607422 C 14.991167 11.018982 15.015273 11.4903 14.876953 11.96875 L 11.904297 11.96875 L 11.904297 14.771484 C 10.539097 15.291854 9.0832063 15.191813 8.3789062 13.783203 C 8.0502762 13.125943 7.9280375 11.966494 7.9296875 10.621094 C 7.9299275 10.422664 7.9431656 10.186169 7.9472656 9.9804688 C 8.4793956 9.9775687 9.0089437 10.017119 9.5273438 10.005859 C 10.181524 9.9916494 10.81605 9.9755794 11.40625 9.9746094 z"/>
</svg>
